assets/svgs/misc-grey/MiscGrey53.svg

<svg width="49" height="38" viewBox="0 0 49 38" fill="none" xmlns="http://www.w3.org/2000/svg">
<path fill-rule="evenodd" clip-rule="evenodd" d="M44.0601 27.6V23.5C45.1001 23.62 45.9101 24.48 45.9101 25.55C45.9101 26.62 45.1001 27.48 44.0601 27.6ZM41.0601 32.1C41.0601 33.24 40.1301 34.17 38.9901 34.17H36.8001V17.9H38.9901C40.1301 17.9 41.0601 18.83 41.0601 19.97V32.1ZM8.33006 32.1V19.97C8.33006 18.83 9.26006 17.9 10.4101 17.9H12.2501V34.17H10.4101C9.26006 34.17 8.33006 33.24 8.33006 32.1ZM3.31006 25.55C3.31006 25.08 3.46006 24.64 3.75006 24.28C4.13006 23.78 4.71006 23.5 5.33006 23.48V27.62C4.21006 27.59 3.31006 26.68 3.31006 25.55ZM48.9101 25.55C48.9101 22.83 46.7501 20.62 44.0601 20.5V19.97C44.0601 17.64 42.4601 15.68 40.3101 15.1C39.6501 7.05996 32.9101 0.709961 24.7001 0.709961C16.4901 0.709961 9.75006 7.05996 9.08006 15.1C6.93006 15.69 5.33006 17.64 5.33006 19.97V20.48C3.78006 20.49 2.34006 21.2 1.38006 22.43C0.690059 23.32 0.310059 24.42 0.310059 25.55C0.310059 28.33 2.56006 30.59 5.33006 30.62V32.1C5.33006 34.9 7.61006 37.17 10.4101 37.17H13.7501C14.5801 37.17 15.2501 36.5 15.2501 35.67C15.2501 35.62 15.2501 35.57 15.2401 35.52C15.2501 35.47 15.2501 35.43 15.2501 35.38V16.84C15.2501 16.77 15.2401 16.69 15.2301 16.62C15.2401 16.55 15.2501 16.48 15.2501 16.4C15.2501 15.57 14.5801 14.9 13.7501 14.9H12.1101C12.8601 8.60996 18.2101 3.70996 24.7001 3.70996C31.1801 3.70996 36.5401 8.60996 37.2801 14.9L35.3101 14.89H35.3001C34.4801 14.89 33.8101 15.56 33.8001 16.39C33.8001 16.47 33.8201 16.54 33.8301 16.62C33.8201 16.69 33.8001 16.76 33.8001 16.84V35.38C33.8001 35.59 33.8501 35.79 33.9301 35.97C34.0701 36.66 34.6701 37.17 35.4001 37.17H38.9901C41.7901 37.17 44.0601 34.9 44.0601 32.1V30.6C46.7501 30.48 48.9101 28.27 48.9101 25.55Z" fill="#1A1919"/>
</svg>

<svg xmlns="http://www.w3.org/2000/svg" fill="none" viewBox="0 0 49 38"><path fill="#1A1919" fill-rule="evenodd" d="M44.06 27.6v-4.1c1.04.12 1.85.98 1.85 2.05 0 1.07-.81 1.93-1.85 2.05zm-3 4.5c0 1.14-.93 2.07-2.07 2.07H36.8V17.9h2.19c1.14 0 2.07.93 2.07 2.07V32.1zm-32.73 0V19.97c0-1.14.93-2.07 2.08-2.07h1.84v16.27h-1.84c-1.15 0-2.08-.93-2.08-2.07zm-5.02-6.55a2 2 0 01.44-1.27c.38-.5.96-.78 1.58-.8v4.14a2.07 2.07 0 01-2.02-2.07zm45.6 0c0-2.72-2.16-4.93-4.85-5.05v-.53c0-2.33-1.6-4.29-3.75-4.87C39.65 7.06 32.91.71 24.7.71 16.49.71 9.75 7.06 9.08 15.1c-2.15.59-3.75 2.54-3.75 4.87v.51c-1.55.01-2.99.72-3.95 1.95-.69.89-1.07 1.99-1.07 3.12a5.08 5.08 0 005.02 5.07v1.48c0 2.8 2.28 5.07 5.08 5.07h3.34c.83 0 1.5-.67 1.5-1.5 0-.05 0-.1-.01-.15.01-.05.01-.09.01-.14V16.84c0-.07-.01-.15-.02-.22.01-.07.02-.14.02-.22 0-.83-.67-1.5-1.5-1.5h-1.64c.75-6.29 6.1-11.19 12.59-11.19 6.48 0 11.84 4.9 12.58 11.19l-1.97-.01h-.01c-.82 0-1.49.67-1.5 1.5 0 .08.02.15.03.23-.01.07-.03.14-.03.22v18.54c0 .21.05.41.13.59.14.69.74 1.2 1.47 1.2h3.59c2.8 0 5.07-2.27 5.07-5.07v-1.5c2.69-.12 4.85-2.33 4.85-5.05z" clip-rule="evenodd"/></svg>
